flaticon/social-media/linkedin.svg

<svg xmlns="http://www.w3.org/2000/svg" width="32" height="32" viewBox="0 0 24 24">
    <path d="M3.238281.199219C2.359375.199219 1.558594.519531.960938 1.121094.320312 1.761719 0 2.558594 0 3.398438 0 4.28125.359375 5.078125.960938 5.679688 1.558594 6.28125 2.398438 6.640625 3.199219 6.601562 3.199219 6.601562 3.238281 6.601562 3.28125 6.601562 4.078125 6.601562 4.839844 6.28125 5.441406 5.679688 6.039062 5.078125 6.398438 4.28125 6.398438 3.398438 6.441406 2.558594 6.078125 1.761719 5.480469 1.160156 4.878906.519531 4.078125.199219 3.238281.199219zM4.878906 5.121094C4.441406 5.558594 3.839844 5.839844 3.199219 5.800781 2.601562 5.800781 1.960938 5.558594 1.519531 5.121094 1.039062 4.679688.800781 4.039062.800781 3.398438.800781 2.761719 1.039062 2.160156 1.519531 1.679688 1.960938 1.238281 2.558594 1 3.238281 1 3.839844 1 4.441406 1.238281 4.878906 1.679688 5.359375 2.160156 5.601562 2.761719 5.601562 3.398438 5.601562 4.039062 5.359375 4.679688 4.878906 5.121094zM4.800781 7.398438L1.558594 7.398438C.921875 7.398438.398438 7.921875.398438 8.601562L.398438 22.601562C.398438 23.238281.960938 23.800781 1.601562 23.800781L4.800781 23.800781C5.441406 23.800781 6 23.238281 6 22.640625L6 8.601562C6 7.960938 5.441406 7.398438 4.800781 7.398438zM5.199219 22.640625C5.199219 22.839844 5 23 4.800781 23L1.601562 23C1.398438 23 1.199219 22.800781 1.199219 22.601562L1.199219 8.601562C1.199219 8.398438 1.359375 8.199219 1.558594 8.199219L4.800781 8.199219C5 8.199219 5.199219 8.398438 5.199219 8.601562zM18.398438 7L17.558594 7C16 7 14.519531 7.679688 13.558594 8.761719L13.558594 8.199219C13.558594 7.800781 13.160156 7.398438 12.761719 7.398438L8.761719 7.398438C8.398438 7.398438 7.960938 7.71875 7.960938 8.160156L7.960938 23.078125C7.960938 23.519531 8.398438 23.800781 8.761719 23.800781L13.160156 23.800781C13.519531 23.800781 13.960938 23.519531 13.960938 23.078125L13.960938 14.441406C13.960938 13.121094 14.921875 12.078125 16.160156 12.078125 16.800781 12.078125 17.398438 12.320312 17.839844 12.761719 18.238281 13.121094 18.398438 13.679688 18.398438 14.398438L18.398438 23C18.398438 23.398438 18.800781 23.800781 19.199219 23.800781L23.199219 23.800781C23.601562 23.800781 24 23.398438 24 23L24 12.679688C24 9.480469 21.558594 7 18.398438 7zM23.199219 22.960938L23.160156 23 19.238281 23 19.199219 14.398438C19.199219 13.441406 18.960938 12.71875 18.441406 12.199219 17.839844 11.601562 17.039062 11.28125 16.199219 11.28125 14.519531 11.320312 13.199219 12.679688 13.199219 14.441406L13.199219 23 8.800781 23 8.800781 8.199219 12.761719 8.199219 12.800781 8.238281 12.800781 10.761719 13.878906 9.679688 13.921875 9.640625C14.71875 8.519531 16.121094 7.800781 17.601562 7.800781L18.441406 7.800781C21.121094 7.800781 23.199219 9.960938 23.199219 12.679688zM23.199219 22.960938"/>
</svg>

<svg xmlns="http://www.w3.org/2000/svg" width="32" height="32" viewBox="0 0 24 24">
    <path d="M3.238.2C2.36.2 1.558.52.961 1.12.32 1.761 0 2.56 0 3.398c0 .883.36 1.68.96 2.282.599.601 1.438.96 2.24.922h.081c.797 0 1.559-.32 2.16-.922a3.215 3.215 0 0 0 .957-2.282c.043-.84-.32-1.636-.918-2.238A3.033 3.033 0 0 0 3.238.2zm1.64 4.921c-.437.438-1.038.719-1.679.68a2.445 2.445 0 0 1-1.68-.68C1.04 4.68.802 4.04.802 3.398c0-.636.238-1.238.719-1.718C1.96 1.238 2.559 1 3.238 1c.602 0 1.203.238 1.64.68.481.48.724 1.082.724 1.718 0 .641-.243 1.282-.723 1.723zm0 0M4.8 7.398H1.56c-.637 0-1.16.524-1.16 1.204v14c0 .636.562 1.199 1.203 1.199H4.8C5.44 23.8 6 23.238 6 22.64V8.6c0-.64-.559-1.203-1.2-1.203zm.4 15.243c0 .199-.2.359-.4.359H1.603c-.204 0-.403-.2-.403-.398v-14c0-.204.16-.403.36-.403H4.8c.199 0 .398.2.398.403zm0 0M18.398 7h-.84c-1.558 0-3.038.68-4 1.762v-.563c0-.398-.398-.8-.796-.8h-4c-.364 0-.801.32-.801.761v14.918c0 .442.437.723.8.723h4.4c.359 0 .8-.281.8-.723v-8.637c0-1.32.96-2.363 2.2-2.363.64 0 1.237.242 1.679.684.398.36.558.918.558 1.636V23c0 .398.403.8.801.8h4c.403 0 .801-.402.801-.8V12.68C24 9.48 21.559 7 18.398 7zM23.2 22.96l-.039.04h-3.922l-.039-8.602c0-.957-.238-1.68-.758-2.199a3.162 3.162 0 0 0-2.242-.918c-1.68.04-3 1.399-3 3.16V23H8.801V8.2h3.96l.04.038v2.524l1.078-1.082.043-.04c.797-1.12 2.2-1.84 3.68-1.84h.84c2.68 0 4.757 2.16 4.757 4.88zm0 0"/>
</svg>
